packages/radix-icons/outline/15/sketch-app.svg

<svg width="15" height="15" fill="none" xmlns="http://www.w3.org/2000/svg">
  <path
    fill-rule="evenodd"
    clip-rule="evenodd"
    d="M7.44697 1.12877C7.48214 1.12374 7.51786 1.12374 7.55303 1.12877L11.053 1.62877C11.1431 1.64164 11.2255 1.68685 11.2847 1.75595L14.2847 5.25595C14.2855 5.25685 14.2863 5.25776 14.287 5.25866C14.3419 5.32389 14.375 5.40809 14.375 5.50001C14.375 5.5968 14.3383 5.68503 14.2781 5.75155L7.78007 13.0494C7.70891 13.1293 7.607 13.175 7.5 13.175C7.393 13.175 7.29109 13.1293 7.21993 13.0494L0.721864 5.75154C0.661666 5.68502 0.625 5.5968 0.625 5.50001C0.625 5.49912 0.625003 5.49824 0.625009 5.49735C0.625642 5.40646 0.658608 5.32326 0.712978 5.25866C0.71374 5.25776 0.714507 5.25685 0.715279 5.25595L3.71528 1.75595C3.77451 1.68685 3.85686 1.64164 3.94697 1.62877L7.44697 1.12877ZM1.83603 5.87501L6.33803 10.9311L4.17113 5.87501H1.83603ZM9.66695 5.05H5.33305L7.5 2.3052L9.66695 5.05ZM10.8289 5.87501L8.66197 10.9311L13.164 5.87501H10.8289ZM13.1847 5.12501L11.2541 2.87271L10.9324 5.12501H13.1847ZM10.5757 2.3182L8.19761 1.97847L10.2524 4.58126L10.5757 2.3182ZM6.80239 1.97847L4.42426 2.3182L4.74756 4.58126L6.80239 1.97847ZM3.74586 2.87271L4.06762 5.12501H1.81532L3.74586 2.87271ZM5.18244 5.95L7.5 11.3576L9.81756 5.95H5.18244Z"
    fill="currentColor"
  />
</svg>

<svg width="15" height="15" fill="none" xmlns="http://www.w3.org/2000/svg">
  <path
    fill-rule="evenodd"
    clip-rule="evenodd"
    d="M7.447 1.129a.375.375 0 01.106 0l3.5.5c.09.013.172.058.232.127l3 3.5.002.003a.374.374 0 01-.009.493L7.78 13.049a.375.375 0 01-.56 0L.722 5.752a.374.374 0 01-.009-.493l.002-.003 3-3.5a.375.375 0 01.232-.127l3.5-.5zM1.836 5.875l4.502 5.056-2.167-5.056H1.836zm7.83-.825H5.334L7.5 2.305 9.667 5.05zm1.163.825l-2.167 5.056 4.502-5.056h-2.335zm2.356-.75l-1.93-2.252-.323 2.252h2.253zm-2.61-2.807l-2.377-.34 2.054 2.603.324-2.263zm-3.773-.34l-2.378.34.324 2.263 2.054-2.603zm-3.056.895l.322 2.252H1.815l1.93-2.252zM5.182 5.95L7.5 11.358 9.818 5.95H5.182z"
    fill="currentColor"
  />
</svg>
